svg/black/colx.svg

<svg height="32" viewBox="0 0 32 32" width="32" xmlns="http://www.w3.org/2000/svg"><g fill="none"><circle cx="16" cy="16" fill="#000" r="16"/><path d="m20.6782723 7.28298429-1.6884817-1.68848167c-.5178011-.51780105-1.2044503-.79921466-1.9361257-.79921466h-.2589005v-.27015707c0-.47277487-.1125654-.92303665-.3489529-1.32827225-.123822-.23638744-.2814136-.45026178-.4727749-.63036649l-1.6884816-1.68848168c-.5178011-.51780105-1.2044503-.79921466-1.9361257-.79921466h-7.77827223c-.73167539 0-1.41832461.28141361-1.93612566.79921466l-1.68848167 1.68848168c-.51780105.5065445-.79921466 1.19319371-.79921466 1.92486911l-.04502618 7.29424084c-.01125654.7316754.28141361 1.4408377.79921466 1.9586387l1.68848168 1.6884817c.51780104.5178011 1.20445026.7992147 1.93612565.7992147h.3039267v.270157c0 .4727749.11256545.9230367.34895288 1.3282723.12382199.2363874.28141361.4502618.47277487.6303665l1.68848168 1.6884817c.51780104.517801 1.20445026.7992146 1.93612565.7992146h7.78952883c.7316754 0 1.4183246-.2814136 1.9361256-.7992146l1.6884817-1.6884817c.517801-.5178011.7992147-1.2044503.7992147-1.9361257v-7.3167539c-.0112566-.73167539-.2926702-1.4183246-.8104712-1.92486911zm-16.15314141 6.47251311c-.07879581 0-.14633508-.0337697-.19136126-.0787958l-.84424083-.8442409-.84424084-.8442408c-.01125655-.0112565-.02251309-.0225131-.03376964-.0450262-.02251308-.0337696-.03376963-.0675392-.04502617-.1013089 0-.0225131 0-.0337696 0-.0562827v-7.2829843c0-.07879581.03376963-.14633508.07879581-.19136126l1.68848167-1.68848167c.02251309-.02251309.04502618-.03376963.06753927-.04502618.04502618-.02251309.09005236-.03376963.13507853-.03376963h7.78952877c.0450262 0 .0787958.01125654.123822.03376963.0337697.01125655.0562827.03376963.0787958.05628272l1.6884817 1.68848168c.0225131.02251309.0450262.04502618.0562827.07879581.0112566.01125655.0112566.02251309.0112566.03376963 0 .01125655.0112565.02251309.0112565.03376964 0 .01125654.0112566.04502618.0112566.06753926v.36020943c0 .15759162-.123822.27015707-.2701571.27015707h-1.3507853c-.0787959 0-.1463351-.03376964-.1913613-.07879581l-.765445-.76544503h-6.59633511l-.28141361.28141361-.38272251.38272251v6.33743459l.66413612.6641361h6.58507851l.7654451-.7767016s.0112565-.0112565.0112565-.0112565c.0225131-.0112566.0450262-.0337697.0675393-.0450262.0337696-.0225131.0787958-.0225131.1125654-.0225131h1.3507854c.0900523 0 .1688481.0450262.2251308.1125655.0337697.0450261.0562828.1013089.0562828.1575916v.3827225c0 .0787958-.0337697.1463351-.0787958.1913613l-.8442409.8442408-.8442408.8442408c-.0112566.0112566-.0337697.0225131-.0450262.0337697 0 0-.0112565.0112565-.0225131.0112565-.0112565.0112565-.0225131.0112565-.0337696.0112565-.0112566 0-.0112566 0-.0225131.0112566-.0112566 0-.0225131.0112565-.0337696.0112565h-.0112566c-.0112565 0-.0112565 0-.0225131 0-.0112565 0-.0225131 0-.0337696 0h-7.78952881zm14.49842931 2.7465968c0 .0787959-.0337696.1463351-.0787958.1913613l-1.6884817 1.6884817c-.0225131.0225131-.0450262.0337696-.0675392.0450262-.0450262.022513-.0900524.0337696-.1350786.0337696h-7.78952877c-.04502618 0-.07879582-.0112566-.12382199-.0337696-.03376964-.0112566-.05628273-.0337697-.07879582-.0562828l-1.68848167-1.6884816c-.02251309-.0225131-.04502618-.0450262-.05628272-.0787959-.01125655-.0112565-.01125655-.022513-.01125655-.0337696 0-.0112565-.01125654-.0225131-.01125654-.0337696 0-.0112566-.01125655-.0450262-.01125655-.0675393v-.3602094c0-.1575916.12382199-.2701571.27015707-.2701571h1.35078534c.07879581 0 .14633508.0337696.19136126.0787958l.76544502.7654451h6.58507852l.2814136-.2814137.3827225-.3827225v-6.33743453l-.6641361-.66413612h-6.57382197l-.76544503.77670157s-.01125654.01125654-.01125654.01125654c-.02251309.01125655-.04502618.03376964-.06753927.04502618-.03376963.02251309-.07879581.02251309-.11256544.02251309h-1.35078534c-.09005236 0-.16884817-.04502618-.22513089-.11256545-.03376964-.04502617-.05628273-.1013089-.05628273-.15759162v-.38272251c0-.07879581.03376964-.14633508.07879581-.19136126l.84424084-.84424084.84424084-.84424083c.01125654-.01125655.03376963-.02251309.04502618-.03376964 0 0 .01125654-.01125654.02251309-.01125654.01125654-.01125655.02251309-.01125655.03376963-.01125655.01125655 0 .01125655 0 .02251309-.01125654.01125654 0 .02251309-.01125655.03376963-.01125655h.01125655.02251309.03376963 7.77827223c.0787958 0 .1463351.03376964.1913613.07879582l.8442408.84424083.8442409.84424084c.0112565.01125655.022513.02251309.0337696.04502618.0225131.03376963.0337696.06753927.0450262.1013089v.05628272c.0112565-.02251309.0112565 7.27172771.0112565 7.27172771z" fill="#fff" transform="translate(5 6)"/></g></svg>

<?xml version="1.0" encoding="UTF-8"?>
<svg width="32px" height="32px" viewBox="0 0 32 32" version="1.1" xmlns="http://www.w3.org/2000/svg" xmlns:xlink="http://www.w3.org/1999/xlink">
    <!-- Generator: Sketch 50 (54983) - http://www.bohemiancoding.com/sketch -->
    <title>black/colx</title>
    <desc>Created with Sketch.</desc>
    <defs></defs>
    <g id="black/colx" stroke="none" stroke-width="1" fill="none" fill-rule="evenodd">
        <circle id="Combined-Shape" fill="#000000" fill-rule="nonzero" cx="16" cy="16" r="16"></circle>
        <g id="ColossusXT-(COLX)" transform="translate(5.000000, 6.000000)" fill="#FFFFFF" fill-rule="nonzero">
            <path d="M20.6782723,7.28298429 L18.9897906,5.59450262 C18.4719895,5.07670157 17.7853403,4.79528796 17.0536649,4.79528796 L16.7947644,4.79528796 L16.7947644,4.52513089 C16.7947644,4.05235602 16.682199,3.60209424 16.4458115,3.19685864 C16.3219895,2.9604712 16.1643979,2.74659686 15.9730366,2.56649215 L14.284555,0.878010471 C13.7667539,0.360209424 13.0801047,0.0787958115 12.3484293,0.0787958115 L4.57015707,0.0787958115 C3.83848168,0.0787958115 3.15183246,0.360209424 2.63403141,0.878010471 L0.945549738,2.56649215 C0.427748691,3.07303665 0.146335079,3.75968586 0.146335079,4.49136126 L0.101308901,11.7856021 C0.090052356,12.5172775 0.382722513,13.2264398 0.90052356,13.7442408 L2.58900524,15.4327225 C3.10680628,15.9505236 3.7934555,16.2319372 4.52513089,16.2319372 L4.82905759,16.2319372 L4.82905759,16.5020942 C4.82905759,16.9748691 4.94162304,17.4251309 5.17801047,17.8303665 C5.30183246,18.0667539 5.45942408,18.2806283 5.65078534,18.460733 L7.33926702,20.1492147 C7.85706806,20.6670157 8.54371728,20.9484293 9.27539267,20.9484293 L17.0649215,20.9484293 C17.7965969,20.9484293 18.4832461,20.6670157 19.0010471,20.1492147 L20.6895288,18.460733 C21.2073298,17.9429319 21.4887435,17.2562827 21.4887435,16.5246073 L21.4887435,9.2078534 C21.4774869,8.47617801 21.1960733,7.7895288 20.6782723,7.28298429 Z M4.52513089,13.7554974 C4.44633508,13.7554974 4.37879581,13.7217277 4.33376963,13.6767016 L3.4895288,12.8324607 L2.64528796,11.9882199 C2.63403141,11.9769634 2.62277487,11.9657068 2.61151832,11.9431937 C2.58900524,11.9094241 2.57774869,11.8756545 2.56649215,11.8418848 C2.56649215,11.8193717 2.56649215,11.8081152 2.56649215,11.7856021 L2.56649215,4.5026178 C2.56649215,4.42382199 2.60026178,4.35628272 2.64528796,4.31125654 L4.33376963,2.62277487 C4.35628272,2.60026178 4.37879581,2.58900524 4.4013089,2.57774869 C4.44633508,2.5552356 4.49136126,2.54397906 4.53638743,2.54397906 L12.3259162,2.54397906 C12.3709424,2.54397906 12.404712,2.5552356 12.4497382,2.57774869 C12.4835079,2.58900524 12.5060209,2.61151832 12.528534,2.63403141 L14.2170157,4.32251309 C14.2395288,4.34502618 14.2620419,4.36753927 14.2732984,4.4013089 C14.284555,4.41256545 14.284555,4.42382199 14.284555,4.43507853 C14.284555,4.44633508 14.2958115,4.45759162 14.2958115,4.46884817 C14.2958115,4.48010471 14.3070681,4.51387435 14.3070681,4.53638743 L14.3070681,4.89659686 C14.3070681,5.05418848 14.1832461,5.16675393 14.036911,5.16675393 L12.6861257,5.16675393 C12.6073298,5.16675393 12.5397906,5.13298429 12.4947644,5.08795812 L11.7293194,4.32251309 L5.13298429,4.32251309 L4.85157068,4.6039267 L4.46884817,4.98664921 L4.46884817,11.3240838 L5.13298429,11.9882199 L11.7180628,11.9882199 L12.4835079,11.2115183 C12.4835079,11.2115183 12.4947644,11.2002618 12.4947644,11.2002618 C12.5172775,11.1890052 12.5397906,11.1664921 12.5623037,11.1552356 C12.5960733,11.1327225 12.6410995,11.1327225 12.6748691,11.1327225 L14.0256545,11.1327225 C14.1157068,11.1327225 14.1945026,11.1777487 14.2507853,11.245288 C14.284555,11.2903141 14.3070681,11.3465969 14.3070681,11.4028796 L14.3070681,11.7856021 C14.3070681,11.8643979 14.2732984,11.9319372 14.2282723,11.9769634 L13.3840314,12.8212042 L12.5397906,13.665445 C12.528534,13.6767016 12.5060209,13.6879581 12.4947644,13.6992147 C12.4947644,13.6992147 12.4835079,13.7104712 12.4722513,13.7104712 C12.4609948,13.7217277 12.4497382,13.7217277 12.4384817,13.7217277 C12.4272251,13.7217277 12.4272251,13.7217277 12.4159686,13.7329843 C12.404712,13.7329843 12.3934555,13.7442408 12.382199,13.7442408 C12.382199,13.7442408 12.3709424,13.7442408 12.3709424,13.7442408 C12.3596859,13.7442408 12.3596859,13.7442408 12.3484293,13.7442408 C12.3371728,13.7442408 12.3259162,13.7442408 12.3146597,13.7442408 L4.52513089,13.7442408 L4.52513089,13.7554974 Z M19.0235602,16.5020942 C19.0235602,16.5808901 18.9897906,16.6484293 18.9447644,16.6934555 L17.2562827,18.3819372 C17.2337696,18.4044503 17.2112565,18.4157068 17.1887435,18.4269634 C17.1437173,18.4494764 17.0986911,18.460733 17.0536649,18.460733 L9.26413613,18.460733 C9.21910995,18.460733 9.18534031,18.4494764 9.14031414,18.4269634 C9.1065445,18.4157068 9.08403141,18.3931937 9.06151832,18.3706806 L7.37303665,16.682199 C7.35052356,16.6596859 7.32801047,16.6371728 7.31675393,16.6034031 C7.30549738,16.5921466 7.30549738,16.5808901 7.30549738,16.5696335 C7.30549738,16.558377 7.29424084,16.5471204 7.29424084,16.5358639 C7.29424084,16.5246073 7.28298429,16.4908377 7.28298429,16.4683246 L7.28298429,16.1081152 C7.28298429,15.9505236 7.40680628,15.8379581 7.55314136,15.8379581 L8.9039267,15.8379581 C8.98272251,15.8379581 9.05026178,15.8717277 9.09528796,15.9167539 L9.86073298,16.682199 L16.4458115,16.682199 L16.7272251,16.4007853 L17.1099476,16.0180628 L17.1099476,9.68062827 L16.4458115,9.01649215 L9.87198953,9.01649215 L9.1065445,9.79319372 C9.1065445,9.79319372 9.09528796,9.80445026 9.09528796,9.80445026 C9.07277487,9.81570681 9.05026178,9.8382199 9.02774869,9.84947644 C8.99397906,9.87198953 8.94895288,9.87198953 8.91518325,9.87198953 L7.56439791,9.87198953 C7.47434555,9.87198953 7.39554974,9.82696335 7.33926702,9.75942408 C7.30549738,9.71439791 7.28298429,9.65811518 7.28298429,9.60183246 L7.28298429,9.21910995 C7.28298429,9.14031414 7.31675393,9.07277487 7.3617801,9.02774869 L8.20602094,8.18350785 L9.05026178,7.33926702 C9.06151832,7.32801047 9.08403141,7.31675393 9.09528796,7.30549738 C9.09528796,7.30549738 9.1065445,7.29424084 9.11780105,7.29424084 C9.12905759,7.28298429 9.14031414,7.28298429 9.15157068,7.28298429 C9.16282723,7.28298429 9.16282723,7.28298429 9.17408377,7.27172775 C9.18534031,7.27172775 9.19659686,7.2604712 9.2078534,7.2604712 C9.2078534,7.2604712 9.21910995,7.2604712 9.21910995,7.2604712 C9.23036649,7.2604712 9.23036649,7.2604712 9.24162304,7.2604712 C9.25287958,7.2604712 9.26413613,7.2604712 9.27539267,7.2604712 L17.0536649,7.2604712 C17.1324607,7.2604712 17.2,7.29424084 17.2450262,7.33926702 L18.089267,8.18350785 L18.9335079,9.02774869 C18.9447644,9.03900524 18.9560209,9.05026178 18.9672775,9.07277487 C18.9897906,9.1065445 19.0010471,9.14031414 19.0123037,9.17408377 C19.0123037,9.19659686 19.0123037,9.2078534 19.0123037,9.23036649 C19.0235602,9.2078534 19.0235602,16.5020942 19.0235602,16.5020942 Z" id="Shape"></path>
        </g>
    </g>
</svg>
